X:1
T:Christ Is Born
T:Christ Is Born
T:R. B. Mahaffey
T:Franklin Edson Belden, 1881
T:Public Domain Courtesy of the Cyber Hymnal™
C:R. B. Mahaffey
Z:Public Domain
Z:Courtesy of the Cyber Hymnal™
%%score 1 ( 2 3 )
L:1/8
Q:1/4=81
M:2/4
K:D
V:1 treble 
V:2 bass 
V:3 bass 
V:1
 [FA] | [Fd]/[Fd]/[Fd]/[Fd]/ [Ac][GB] | [FA]3 [FA] | [GB][GB] [FA][EG] | [DF]3 [FA] | %5
w: 1.~’Tis|mer- ry, mer- ry Christ- mas|time! The|world with joy is|clad; Let|
w: 2.~All|glo- ry un- to God, our|king; To|Christ, His on- ly|Son; For-|
w: 3.~All|glo- ry un- to Christ, our|Lord! Who|saves us thro’ His|name; Let|
 [Fd]/[Fd]/[Fd]/[Fd]/ [Ac][GB] | [FA]3 [FA] | [GB][GB] [Ec][Gc] | [Fd]3 z || %9
w: all our hap- py voic- es|chime, And|ev- ery heart be|glad.|
w: ev- er let His prais- es|ring, Re-|demp- tion is be-|gun.|
w: Heav’n and earth, with one ac-|cord, His|prais- es loud pro-|claim.|
"^Refrain" [Ec]>[Ec] [Ec][Ec] | [Ge][Ge] [Ge]2 | [^Gd]>[Gd] [Ac][GB] | [Ac]3 z | %13
w: ||||
w: Raise your grate- ful|voic- es high,|Let no heart be|sad;|
w: ||||
 [Fd]>[Fd] [Fd][Fd] | [Ac][GB] [FA][FA] | [GB]>[GB] [Ec][Ec] | [Fd]3 |] %17
w: ||||
w: Christ is born, the|great Mes- si- ah,|Let the world be|glad.|
w: ||||
V:2
 [D,D] | [D,A,]/[D,A,]/[D,A,]/[D,A,]/ [D,D][D,D] | [D,D]3 [D,D] | [G,D][G,D] [G,D]A, | %4
 [D,A,]3 [D,D] | [D,A,]/[D,A,]/[D,A,]/[D,A,]/ [D,D][D,D] | [D,D]3 [D,D] | [G,D][G,D] A,[A,,A,] | %8
 [D,A,]3 z || [A,,A,]>[A,,A,] [A,,A,][A,,A,] | [A,C][A,C] [A,C]2 | [E,B,]>[E,B,] [E,E][E,E] | %12
 [A,,E]3 z | [D,A,]>[D,A,] [D,A,][D,A,] | [D,D][D,D] [D,D][D,D] | [G,D]>[G,D] A,[A,,A,] | %16
 [D,A,]3 |] %17
V:3
 x | x4 | x4 | x3 A, | x4 | x4 | x4 | x2 A, x | x4 || x4 | x4 | x4 | x4 | x4 | x4 | x2 A, x | x3 |] %17

